X: 6896
T: Château Du Garage
R: reel
M: 4/4
K: Gmajor
GABc|:"G"d2dedcBA|GABGD2EF|"C"G2GABABc|"D"d2A2dcBA|
"C"G2E2DEGB|"D"A2A2"G"G2E2|DEGB"D"A2A2|1 "G"G3AGABc:|2 "G"G3AB2"C"c2-||
cdcdcBAB|"D"cd"G"B2G2B2|"C"c3dcdcB|"D"A2G"G"B2cBA|
G2E2"C"DEGB|"D"A2A2"G"G2E2|DEGB"D"A2A2|1 "G"G3AB2"C"c2-:|2 "G"G3AGABc||

